!!!!SEGMENT: pl-kk--kk-i-27--003_anonim--missa-sine-nomine-sanctus.krn
!!!cenid: 17xx:2221
!!!COM: Anonim
!!!COM-rism: pe30004985
!!!CDT:
!!!CNT:
!!!OTL: Missa sine nomine – Sanctus
!!!PDT:
!!!AGN: Sacred; Mass
!!!SMS-siglum: PL-Kk
!!!SMS-shelfmark: Kk.I.27
!!!SMS-variant:
!!!SMS-altvar:
!!!NIFC-rismID: 1001156089
!!!system-decoration: [(s1,s2,s3,s4)]
**kern	**text	**kern	**text	**kern	**text	**kern	**text
*part4	*part4	*part3	*part3	*part2	*part2	*part1	*part1
*staff4	*staff4	*staff3	*staff3	*staff2	*staff2	*staff1	*staff1
*I"Baſso.	*	*I"Tenore	*	*I"Alto.	*	*I"Canto.	*
*I'B	*	*I'T	*	*I'A	*	*I'S	*
*clefF4	*	*clefC4	*	*clefC3	*	*clefC1	*
*k[]	*	*k[]	*	*k[]	*	*k[]	*
*M2/1	*	*M2/1	*	*M2/1	*	*M2/1	*
=1	=1	=1	=1	=1	=1	=1	=1
*	*	*	*	*2\right	*	*2\right	*
!LO:TX:t=P:problem:w źródle inicjał S na początku pięciolinii	!	!LO:TX:t=P:problem:w źródle inicjał S na początku pięciolinii	!	!	!	!	!
!	!	!	!	!LO:TX:t=P:problem:w źródle inicjał S na początku pięciolinii	!	!LO:TX:t=P:problem:w źródle inicjał S na początku pięciolinii	!
00r	.	00r	.	2r	.	2r	.
!	!	!	!	!	!	!LO:TX:t=P:problem:kreska pseudotaktowa	!
.	.	.	.	1a	San-	(>2ccn\	San-
.	.	.	.	.	.	2dd\	.
!	!	!	!	!LO:TX:t=P:problem:kreska pseudotaktowa	!	!	!
!	!	!	!	!	!	!LO:TX:t=P:problem:kreska pseudotaktowa	!
.	.	.	.	2g#X\	.	2ee\)	.
=2-	=2-	=2-	=2-	=2	=2	=2	=2
!	!	!	!	!	!	!LO:TX:t=P:problem:kreska oddechu na różnych liniach [rozdzielacz słów / znak oddechu]:global	!
.	.	.	.	2.a\	.	2a,<\	-ctus
*	*	*	*	*	*	*	*ij
.	.	.	.	.	.	1ee	San-
.	.	.	.	4g\	.	.	.
.	.	.	.	1fn	-ctus	.	.
.	.	.	.	.	.	2dd\	.
=3	=3	=3	=3	=3-	=3-	=3-	=3-
*2\right	*	*2\right	*	*	*	*	*
!	!	!	!	!LO:TX:t=P:problem:kreska oddechu na różnych liniach [rozdzielacz słów / znak oddechu]:global	!	!	!
!	!	!	!	!LO:TX:t=P:problem:kreska pseudotaktowa	!	!LO:TX:t=P:problem:kreska pseudotaktowa	!
2r	.	2r	.	1e,<	.	1ee,<	-ctus
!	!	!LO:TX:t=P:problem:kreska pseudotaktowa	!	!	!	!	!
1A	San-	2cn\	San-	.	.	.	.
*	*	*	*	*	*	*	*Xij
*	*	*	*	*	*ij	*	*
.	.	(>2d\	.	1d	San-	1bn	San-
!LO:TX:t=P:problem:kreska pseudotaktowa	!	!	!	!	!	!	!
!	!	!LO:TX:t=P:problem:kreska pseudotaktowa	!	!	!	!	!
2G#X\	.	2e\)	.	.	.	.	.
=4	=4	=4	=4	=4-	=4-	=4-	=4-
!	!	!	!	!LO:TX:t=P:problem:kreska pseudotaktowa	!	!	!
!	!	!LO:TX:t=P:problem:kreska oddechu na różnych liniach [rozdzielacz słów / znak oddechu]:global	!	!	!	!	!
2.A\	.	2A,<\	-ctus	1c	-ctus	2.cc\	.
.	.	1e	San-	.	.	.	.
!LO:TX:t=P:problem:kreska pseudotaktowa	!	!	!	!	!	!LO:TX:t=P:problem:kreska pseudotaktowa	!
4G\	.	.	.	.	.	4b\	.
*	*	*	*	*	*Xij	*	*
!	!	!	!	!LO:TX:t=P:problem:kreska pseudotaktowa	!	!	!
1F	.	.	.	1r	.	1a	.
!	!	!LO:TX:t=P:problem:kreska pseudotaktowa	!	!	!	!	!
.	.	2d\	.	.	.	.	.
=5-	=5-	=5	=5	=5	=5	=5-	=5-
!LO:TX:t=P:problem:kreska pseudotaktowa	!	!LO:TX:t=P:problem:kreska pseudotaktowa	!	!	!	!LO:TX:t=P:problem:kreska pseudotaktowa	!
!LO:TX:t=P:problem:kreska oddechu na różnych liniach [rozdzielacz słów / znak oddechu]:global	!	!	!	!	!	!	!
1E,<	-ctus	1e,<	-ct(us)	2e\	Do-	1g#X	-ctus
.	.	.	.	4e\	-mi-	.	.
!	!	!	!	!LO:TX:t=P:problem:kreska pseudotaktowa	!	!	!
.	.	.	.	4d\	-n(us)	.	.
2A\	Do-	2e\	Do-	2c/	De-	2a\	Do-
!	!	!	!	!LO:TX:t=P:problem:kreska pseudotaktowa	!	!	!
4A\	-mi-	4c\	-mi-	2e\	-us	4a\	-mi-
!LO:TX:t=P:problem:kreska pseudotaktowa	!	!LO:TX:t=P:problem:kreska pseudotaktowa	!	!	!	!LO:TX:t=P:problem:kreska pseudotaktowa	!
4G\	-n(us)	4c\	-n(us)	.	.	4a\	-n(us)
=6	=6	=6	=6	=6	=6	=6	=6
2F\	DE-	2c\	De-	(>2f\	Sab-	2a\	De-
!LO:TX:t=P:problem:kreska pseudotaktowa	!	!	!	!	!	!	!
!LO:TX:t=P:problem:wykreślony dźwięk	!	!LO:TX:t=P:problem:kreska pseudotaktowa	!	!	!	!LO:TX:t=P:problem:wykreślony dźwięk	!
2C/	-(us)	2c\	-us	2e\)	.	2gn/	-us
1.G	Sab-	2B\	.	(>2d\	.	1.g	Sab-
!	!	!	!	!LO:TX:t=P:problem:kreska pseudotaktowa	!	!	!
.	.	1c\	Sab-	2e\)	.	.	.
=7-	=7-	=7-	=7-	=7	=7	=7-	=7-
.	.	.	.	2.d\	.	.	.
!LO:TX:t=P:problem:kreska pseudotaktowa	!	!	!	!	!	!	!
2GG/	-ba-	2B\	-ba-	.	.	2g\	-ba-
.	.	.	.	4d\	-ba-	.	.
!LO:N:vis=0	!	!LO:N:vis=0	!	!LO:N:vis=0	!	!LO:N:vis=0	!
1C;>	-oth	1c;>	-oth.	1e;>	-oth.	1g;>	-oth
=8||	=8||	=8||	=8||	=8||	=8||	=8||	=8||
*M2/1	*	*M2/1	*	*M2/1	*	*M2/1	*
1c	Ple-	1e	Ple-	2g\	Ple-	(>1e	Ple-
.	.	.	.	4g\	-ni	.	.
!	!	!	!	!LO:TX:t=P:problem:kreska pseudotaktowa	!	!	!
.	.	.	.	4g\	sunt	.	.
!	!	!	!	!	!	!LO:TX:t=P:problem:kreska pseudotaktowa	!
2c\	-ni	2e\	-ni	4g\	[cae]-	1cc)	.
.	.	.	.	4f\	.	.	.
!LO:TX:t=P:problem:kreska pseudotaktowa	!	!LO:TX:t=P:problem:kreska pseudotaktowa	!	!	!	!	!
2c\	sunt	2e\	sunt	4e\	.	.	.
!	!	!	!	!LO:TX:t=P:problem:kreska pseudotaktowa	!	!	!
.	.	.	.	4d|>\	.	.	.
!	!	!LO:LB:g=original	!	!LO:LB:g=original	!	!	!
=9	=9	=9	=9	=9	=9	=9	=9
!	!	!	!	!LO:TX:t=P:problem:kreska pseudotaktowa	!	!	!
(>4c\	cae-	(>4e\	Cae-	1c	.	2cc\	-ni
4B\)	.	4d\)	.	.	.	.	.
!	!	!	!	!	!	!LO:TX:t=P:problem:kreska pseudotaktowa	!
4A,<|>\	-li	4c,<\	-li	.	.	2cc\	sunt
!LO:TX:t=P:problem:kreska pseudotaktowa	!	!	!	!	!	!	!
!	!	!LO:TX:t=P:problem:kreska pseudotaktowa	!	!	!	!	!
4G|>\	et	4B\	et	.	.	.	.
!LO:LB:g=original	!	!	!	!	!	!LO:LB:g=original	!
1F	ter-	1A	ter-	2c,</	-li	(>4cc\	cae-
.	.	.	.	.	.	4b\)	.
!	!	!	!	!LO:TX:t=P:problem:kreska pseudotaktowa	!	!	!
.	.	.	.	2c/	sunt	4a,<|>\	-li
!	!	!	!	!	!	!LO:TX:t=P:problem:kreska pseudotaktowa	!
.	.	.	.	.	.	4g|>\	et
=10-	=10-	=10-	=10-	=10	=10	=10	=10
!	!	!	!	!LO:TX:t=P:problem:kreska pseudotaktowa	!	!	!
2F,<\	-ra	2A,</	-ra	1f	Cae-	1f	ter-
!LO:TX:t=P:problem:kreska pseudotaktowa	!	!LO:TX:t=P:problem:kreska pseudotaktowa	!	!	!	!	!
2D/	sunt	2A/	sunt	.	.	.	.
!	!	!LO:TX:t=P:problem:kreska pseudotaktowa	!	!	!	!	!
1d	cae-	1f	cae-	2f,<\	-li	2f,</	-ra
!	!	!	!	!LO:TX:t=P:problem:kreska pseudotaktowa	!	!LO:TX:t=P:problem:kreska pseudotaktowa	!
.	.	.	.	2f\	et	2d/	ſunt
=11-	=11-	=11	=11	=11	=11	=11	=11
!	!	!	!	!	!	!LO:TX:t=P:problem:kreska pseudotaktowa	!
2d,<\	-li	2f,<\	-li	4f\	ter-	1dd	cae-
.	.	.	.	4g\	.	.	.
!LO:TX:t=P:problem:kreska pseudotaktowa	!	!LO:TX:t=P:problem:kreska pseudotaktowa	!	!	!	!	!
2d\	et	2f\	et	4f\	.	.	.
!	!	!	!	!LO:TX:t=P:problem:kreska pseudotaktowa	!	!	!
.	.	.	.	4e\	.	.	.
!	!	!	!	!LO:TX:t=P:problem:kreska pseudotaktowa	!	!	!
!	!	!	!	!LO:TX:a:t=P:w źródle możliwa ligatura:problem	!	!	!
(>4d\	ter-	4f\	ter-	(<1d	.	2.dd,<\	-li
4c\	.	4e\	.	.	.	.	.
4B\	.	4d\	.	.	.	.	.
!LO:TX:t=P:problem:kreska pseudotaktowa	!	!	!	!	!	!LO:TX:t=P:problem:kreska pseudotaktowa	!
4A\)	.	4c\	.	.	.	4a\	cae-
=12	=12	=12-	=12-	=12	=12	=12	=12
!	!	!LO:TX:t=P:problem:kreska pseudotaktowa	!	!	!	!	!
4G\	.	1Bn	.	1d)	.	(>4b\	-li
4F\	.	.	.	.	.	4a,<\)	.
4E\	.	.	.	.	.	4g\	et
!LO:TX:t=P:problem:kreska pseudotaktowa	!	!	!	!	!	!	!
4D\	.	.	.	.	.	4f\	.
4C/	.	2c\	-ra	2e,<\	-ra	2e/	ter-
4C,</	-ra	.	.	.	.	.	.
!	!	!LO:TX:t=P:problem:kreska pseudotaktowa	!	!LO:TX:t=P:problem:kreska pseudotaktowa	!	!LO:TX:t=P:problem:kreska pseudotaktowa	!
!	!	!	!	!LO:TX:a:t=P:w źródle możliwa ligatura:problem	!	!	!
1F\	glo-	2F/	.	(<2a\	glo-	2f/	-ra
=13-	=13-	=13	=13	=13-	=13-	=13	=13
.	.	2d\	glo-	2a\)	.	2a\	glo-
4D\	-ri-	4d\	-ri-	4f\	-ri-	4b\	.
!LO:TX:t=P:problem:kreska pseudotaktowa	!	!LO:TX:t=P:problem:kreska pseudotaktowa	!	!LO:TX:t=P:problem:kreska pseudotaktowa	!	!LO:TX:t=P:problem:kreska pseudotaktowa	!
4D\	-a	4c\	-a	4f\	-a	4a\	.
!	!	!LO:TX:t=P:problem:kreska pseudotaktowa	!	!LO:TX:t=P:problem:kreska pseudotaktowa	!	!LO:TX:t=P:problem:kreska pseudotaktowa	!
2E\	Tu-	1B	tu-	1e	tu-	1g#X	.
1E\	-â	.	.	.	.	.	.
=14-	=14-	=14	=14	=14	=14	=14	=14
!	!	!LO:TX:t=P:problem:kreska pseudotaktowa	!	!LO:TX:t=P:problem:kreska pseudotaktowa	!	!	!
.	.	1B,<	-â	1e	-â	2g#X\	-ri-
!LO:TX:t=P:problem:kreska pseudotaktowa	!	!	!	!	!	!	!
!LO:TX:a:t=P:w źródle możliwa ligatura:problem	!	!	!	!	!	!	!
(<2E\	Glo-	.	.	.	.	2e,</	-a
1.E)	.	2r	.	2r	.	2a\	glo-
!	!	!LO:TX:t=P:problem:kreska pseudotaktowa	!	!LO:TX:t=P:problem:kreska pseudotaktowa	!	!LO:TX:t=P:problem:kreska pseudotaktowa	!
.	.	2E/	glo-	2g#X\	Glo-	2b\	.
=15-	=15-	=15	=15	=15	=15	=15	=15
.	.	2A|>\	.	2a\	.	2cc\	.
!	!	!LO:TX:t=P:problem:kreska pseudotaktowa	!	!	!	!	!
!LO:TX:t=P:problem:kreska pseudotaktowa	!	!	!	!LO:TX:t=P:problem:kreska pseudotaktowa	!	!LO:TX:t=P:problem:kreska pseudotaktowa	!
2E\	-ri-	2B|>\	.	2g#X\	.	2b\	.
!LO:TX:t=P:problem:kreska pseudotaktowa	!	!	!	!	!	!	!
0E,<	-â	2c\	-ri-	2a\	.	2a\	.
!	!	!LO:TX:t=P:problem:kreska pseudotaktowa	!	!LO:TX:t=P:problem:kreska pseudotaktowa	!	!LO:TX:t=P:problem:kreska pseudotaktowa	!
.	.	2B\	-a	2g#X\	.	2b\	-ri-
=16-	=16-	=16	=16	=16	=16	=16	=16
.	.	(>2A\	.	4a\	-ri-	2cc\	-â
.	.	.	.	4A/	-a	.	.
!	!	!	!	!LO:TX:a:t=P:w źródle fragment tekstu nieczytelny:problem	!	!	!
.	.	2G#X/)	.	1e	[Glo-	2b\	.
0Fn	Tu-	0A	Tu-	.	.	0a	Tu-
.	.	.	.	4d\	-ri-	.	.
!	!	!	!	!LO:TX:t=P:problem:kreska pseudotaktowa	!	!	!
.	.	.	.	4c\	-a]	.	.
=17-	=17-	=17-	=17-	=17	=17	=17-	=17-
.	.	.	.	1d	[Tu-	.	.
!	!	!	!	!LO:TX:a:t=P:fragment źródła zniszczony:problem	!	!	!
!	!	!	!	!	!	!LO:TX:b:Bi:t=Osanna in excelſis Sequitur 3/2	!
!	!	!	!	!	!	!LO:SIC:v:t=custos g	!
!LO:N:vis=0	!	!LO:N:vis=0	!	!LO:N:vis=0	!	!LO:N:vis=0	!
1E;>	-â.	1B;>	-â.	1e	-â]	1g#X	-â
!LO:PB:g=original	!	!LO:LB:g=original	!	!LO:PB:g=original	!	!LO:PB:g=original	!
=18||	=18||	=18||	=18||	=18||	=18||	=18||	=18||
*M3/2	*	*M3/2	*	*M3/2	*	*M3/2	*
!LO:TX:t=P:problem:w źródle inicjał O na początku pięciolinii	!	!LO:TX:t=P:problem:w źródle inicjał O na początku pięciolinii	!	!	!	!	!
!	!	!	!	!LO:TX:t=P:problem:w źródle inicjał O na początku pięciolinii	!	!LO:TX:t=P:problem:w źródle inicjał O na początku pięciolinii	!
2C/	O-	2c\	O-	2e\	O-	2g/	O-
2C/	-san-	2c\	-san-	2e\	-san-	2g/	-san-
!LO:TX:t=P:problem:kreska pseudotaktowa	!	!LO:TX:t=P:problem:kreska pseudotaktowa	!	!LO:TX:t=P:problem:kreska pseudotaktowa	!	!LO:TX:t=P:problem:kreska pseudotaktowa	!
2C/	-na	2c\	-na	2e\	-na	2g/	-na
=19	=19	=19	=19	=19	=19	=19	=19
1F	in	1c	in	1fn	in	1a	in
!LO:TX:t=P:problem:kreska pseudotaktowa	!	!LO:TX:t=P:problem:kreska pseudotaktowa	!	!LO:TX:t=P:problem:kreska pseudotaktowa	!	!LO:TX:t=P:problem:kreska pseudotaktowa	!
2G\	ex-	2Bn\	ex-	2d\	ex-	2g\	ex-
=20	=20	=20	=20	=20	=20	=20	=20
2c\	-cel-	2c\	-cel-	2e\	-cel-	2g/	-cel-
2c,<\	-ſis.	2c,<\	-ſis	2e,<\	-ſis.	2g,</	-ſis.
!LO:TX:t=P:problem:kreska pseudotaktowa	!	!LO:TX:t=P:problem:kreska pseudotaktowa	!	!LO:TX:t=P:problem:kreska pseudotaktowa	!	!LO:TX:t=P:problem:kreska pseudotaktowa	!
2C/	O-	2c\	O-	2e\	O-	2g/	O-
=21	=21	=21	=21	=21	=21	=21	=21
2c\	-san-	2c\	-san-	2e\	-san-	2g/	-san-
2Bn,<\	-na	2d,<\	-na	2d,<\	-na	2g,</	-na
*	*ij	*	*ij	*	*ij	*	*ij
!LO:TX:t=P:problem:kreska pseudotaktowa	!	!LO:TX:t=P:problem:kreska pseudotaktowa	!	!LO:TX:t=P:problem:kreska pseudotaktowa	!	!LO:TX:t=P:problem:kreska pseudotaktowa	!
2A\	O-	2e\	O-	2c/	O-	2a\	O-
=22	=22	=22	=22	=22	=22	=22	=22
2.d\	-san-	2.d\	-san-	2.f#X\	-san-	2.a\	-san-
4c,<\	-na	4d,<\	-na	4f#,<\	-na	4a\	-na
*	*Xij	*	*Xij	*	*Xij	*	*Xij
!LO:TX:t=P:problem:kreska pseudotaktowa	!	!LO:TX:t=P:problem:kreska pseudotaktowa	!	!LO:TX:t=P:problem:kreska pseudotaktowa	!	!LO:TX:t=P:problem:kreska pseudotaktowa	!
2B\	in	2d\	in	2g\	in	2b\	in
=23	=23	=23	=23	=23	=23	=23	=23
2G\	ex-	2d\	ex-	2g\	ex-	2b\	ex-
!	!	!LO:TX:t=P:problem:kreska pseudotaktowa	!	!	!	!LO:TX:t=P:problem:kreska pseudotaktowa	!
2d\	-cel-	1d	-cel-	(>2g\	-cel-	1a	-cel-
!LO:TX:t=P:problem:kreska pseudotaktowa	!	!	!	!LO:TX:t=P:problem:kreska pseudotaktowa	!	!	!
2D/	.	.	.	2f#X\)	.	.	.
=24	=24	=24	=24	=24	=24	=24	=24
1G,<	-sis	1d,<	-ſis.	1g,<	-ſis.	1b,<	-ſis
!LO:TX:t=P:problem:kreska pseudotaktowa	!	!LO:TX:t=P:problem:kreska pseudotaktowa	!	!LO:TX:t=P:problem:kreska pseudotaktowa	!	!LO:TX:t=P:problem:kreska pseudotaktowa	!
2E\	O-	2e\	O-	2g#X\	O-	2b\	O-
=25	=25	=25	=25	=25	=25	=25	=25
2A\	-san-	2e\	-san-	2.a\	-san-	2cc\	-san-
2A,<\	-na	2e\	-na	.	.	2cc,<\	-na
.	.	.	.	4b\	-na	.	.
*	*ij	*	*ij	*	*ij	*	*ij
!LO:TX:t=P:problem:kreska pseudotaktowa	!	!LO:TX:t=P:problem:kreska pseudotaktowa	!	!LO:TX:t=P:problem:kreska pseudotaktowa	!	!LO:TX:t=P:problem:kreska pseudotaktowa	!
2E\	O-	2e\	O-	2g#X\	O-	2b\	O-
=26	=26	=26	=26	=26	=26	=26	=26
1A	-san-	1e	-san-	2a\	-san-	1cc	-san-
.	.	.	.	2a,<\	-na	.	.
*	*	*	*	*	*Xij	*	*
!	!	!	!	!LO:TX:t=P:problem:kreska pseudotaktowa	!	!	!
!LO:TX:t=P:problem:kreska pseudotaktowa	!	!LO:TX:t=P:problem:kreska pseudotaktowa	!	!	!	!LO:TX:t=P:problem:kreska pseudotaktowa	!
!	!	!	!	!LO:TX:t=P:problem:# above	!	!	!
!	!	!	!	!	!	!LO:TX:a:t=P:w źródle możliwa ligatura:problem	!
2B\	-na	2d#X\	-na	2f#Xi\	O-	(<2b\	-na
*	*Xij	*	*Xij	*	*	*	*Xij
!LO:LB:g=original	!	!	!	!LO:LB:g=original	!	!	!
=27	=27	=27	=27	=27	=27	=27	=27
!	!	!	!	!LO:TX:t=P:problem:kreska pseudotaktowa	!	!	!
1c	in	1e	in	1.e	-san-	2b,\)	.
*	*	*	*	*	*	*	*
.	.	.	.	.	.	2b\	in
!LO:TX:t=P:problem:kreska pseudotaktowa	!	!	!	!	!	!LO:TX:t=P:problem:kreska pseudotaktowa	!
2c\	ex-	2e\	ex-	.	.	2a\	ex-
=28	=28	=28-	=28-	=28	=28	=28	=28
2Bn\	-cel-	2d#X\	-cel-	2f#X\	.	2b\	-cel-
2B,<\	-ſis	2d#,<\	-sis,	2f#,<\	-na	2b,<\	-ſis
*	*	*	*	*	*ij	*	*
!LO:TX:t=P:problem:kreska pseudotaktowa	!	!	!	!LO:TX:t=P:problem:kreska pseudotaktowa	!	!	!
!	!	!LO:TX:t=P:problem:# above	!	!	!	!	!
2A\	O-	2d#Xi\	O-	2f#\	O-	2b\	O-
=29	=29	=29	=29	=29	=29	=29-	=29-
1Gn	-san-	1e	-san-	1g	-san-	1b	-ſan-
!LO:TX:t=P:problem:kreska pseudotaktowa	!	!LO:TX:t=P:problem:kreska pseudotaktowa	!	!LO:TX:t=P:problem:kreska pseudotaktowa	!	!LO:TX:t=P:problem:kreska pseudotaktowa	!
2E\	-na	2e,<\	-na	2g,<\	-na	2b\	-na
*	*	*	*	*	*Xij	*	*
!	!	!LO:LB:g=original	!	!	!	!LO:LB:g=original	!
=30	=30	=30	=30	=30	=30	=30	=30
(>2.A\	in	1c#X	in	1e	in	1a	in
4G\)	.	.	.	.	.	.	.
!LO:TX:t=P:problem:kreska pseudotaktowa	!	!LO:TX:t=P:problem:kreska pseudotaktowa	!	!LO:TX:t=P:problem:kreska pseudotaktowa	!	!LO:TX:t=P:problem:kreska pseudotaktowa	!
!	!	!	!	!LO:TX:a:t=P:w źródle możliwa ligatura:problem	!	!	!
2F#X\	ex-	2d\	ex-	(<2f#X\	ex-	2a\	ex-
=31	=31	=31	=31	=31	=31	=31	=31
!	!	!	!	!	!	!LO:TX:t=P:problem:kreska pseudotaktowa	!
2D\	-cel-	(>1d	-cel-	2f#\)	.	1.a	-cel-
!	!	!	!	!LO:TX:t=P:problem:kreska pseudotaktowa	!	!	!
2A\	.	.	.	1e	-cel-	.	.
!LO:TX:t=P:problem:kreska pseudotaktowa	!	!	!	!	!	!	!
2AA/	-sis	2c#X\)	.	.	.	.	.
=32	=32	=32-	=32-	=32	=32	=32	=32
1D	.	1d	-ſis.	1f#X	-sis.	2a,<\	-ſis.
.	.	.	.	.	.	2d/	in
!LO:TX:t=P:problem:kreska pseudotaktowa	!	!LO:TX:t=P:problem:kreska pseudotaktowa	!	!LO:TX:t=P:problem:kreska pseudotaktowa	!	!LO:TX:t=P:problem:kreska pseudotaktowa	!
2r	.	2r	.	2r	.	2d/	ex-
=33	=33	=33	=33	=33	=33	=33	=33
2r	.	2r	.	2r	.	2g\	-cel-
2GG/	in	2B\	in	2d\	in	2g,<\	-ſis.
!LO:TX:t=P:problem:kreska pseudotaktowa	!	!LO:TX:t=P:problem:kreska pseudotaktowa	!	!LO:TX:t=P:problem:kreska pseudotaktowa	!	!LO:TX:t=P:problem:kreska pseudotaktowa	!
2GG/	ex-	2B\	ex-	2d\	ex-	2g\	O-
=34	=34	=34	=34	=34	=34	=34	=34
2.C/	-cel-	1G	-cel-	1.cn	-cel-	2.e/	-san-
4D/	.	.	.	.	.	4f/	-na
!	!	!LO:TX:t=P:problem:kreska pseudotaktowa	!	!	!	!	!
4C/	.	2G/	-ſis	.	.	4g/	in
!LO:TX:t=P:problem:kreska pseudotaktowa	!	!	!	!	!	!LO:TX:t=P:problem:kreska pseudotaktowa	!
4BB/	.	.	.	.	.	4e/	ex-
=35	=35	=35	=35	=35-	=35-	=35	=35
*	*	*	*ij	*	*	*	*
!	!	!	!	!LO:TX:t=P:problem:kreska pseudotaktowa	!	!	!
2AA,</	-sis	1c	in	1.e	.	2a\	-cel-
4AA/	O-	.	.	.	.	2a,<\	-ſis
(<4BB/	-san-	.	.	.	.	.	.
*	*	*	*	*	*	*	*ij
!	!	!	!	!	!	!LO:TX:t=P:problem:kreska pseudotaktowa	!
4C/)	.	2c\	ex-	.	.	2a\	O-
!LO:TX:t=P:problem:kreska pseudotaktowa	!	!	!	!	!	!	!
4AA/	.	.	.	.	.	.	.
=36	=36	=36-	=36-	=36	=36	=36	=36
2.D\	-na	1A	-cel-	1.d	.	2.f#X/	-san-
4E\	.	.	.	.	.	4g/	-na
!	!	!LO:TX:t=P:problem:kreska pseudotaktowa	!	!	!	!	!
4D\	.	2A\	-ſis	.	.	4a/	in
!LO:TX:t=P:problem:kreska pseudotaktowa	!	!	!	!	!	!LO:TX:t=P:problem:kreska pseudotaktowa	!
4C\	.	.	.	.	.	4f#/	ex-
*	*	*	*Xij	*	*	*	*
!LO:LB:g=original	!	!	!	!	!	!	!
=37	=37	=37	=37	=37-	=37-	=37	=37
!	!	!	!	!LO:TX:t=P:problem:kreska pseudotaktowa	!	!	!
2BB/	in	1d#X	in	1.f#X	.	1b	-cel-
4BB/	ex-	.	.	.	.	.	.
4C/	.	.	.	.	.	.	.
!	!	!	!	!	!	!LO:TX:t=P:problem:kreska pseudotaktowa	!
4D#X/	.	2d#\	ex-	.	.	2b,<\	-ſis
!LO:TX:t=P:problem:kreska pseudotaktowa	!	!	!	!	!	!	!
4BB/	-cel-	.	.	.	.	.	.
*	*	*	*	*	*	*	*Xij
=38	=38	=38-	=38-	=38	=38	=38	=38
!	!	!	!	!	!	!LO:TX:t=P:problem:kreska pseudotaktowa	!
!	!	!	!	!	!	!LO:TX:a:t=P:w źródle możliwa ligatura:problem	!
2E\	-sis	2e\	-cel-	2g\	.	(<1.b	O-
2E,<\	.	2e\	-ſis	2g,<\	-sis	.	.
!LO:TX:t=P:problem:kreska pseudotaktowa	!	!	!	!LO:TX:t=P:problem:kreska pseudotaktowa	!	!	!
2Dn\	O-	(>4f#X\	O-	2f#X\	O-	.	.
.	.	4B\)	.	.	.	.	.
=39	=39	=39-	=39-	=39	=39	=39	=39
!LO:TX:t=P:problem:kreska pseudotaktowa	!	!LO:TX:t=P:problem:kreska pseudotaktowa	!	!	!	!	!
1.C	-san-	1.e	-san-	(>1g	-san-	2b\)	.
.	.	.	.	.	.	2b\	-san-
!	!	!	!	!	!	!LO:TX:t=P:problem:kreska pseudotaktowa	!
.	.	.	.	2e\)	.	2a\	-na
=40	=40	=40	=40	=40-	=40-	=40	=40
!	!	!	!	!	!	!LO:TX:t=P:problem:kreska pseudotaktowa	!
1BB,<	-na	1d#X,<	-na	1f#X,<	-na	1.b,<	.
*	*	*	*ij	*	*	*	*
!	!	!	!	!LO:TX:t=P:problem:kreska pseudotaktowa	!	!	!
4B\	O-	2d#\	O-	2f#\	O-	.	.
!LO:TX:t=P:problem:kreska pseudotaktowa	!	!	!	!	!	!	!
4A\	.	.	.	.	.	.	.
!	!	!	!	!LO:LB:g=original	!	!	!
=41	=41	=41-	=41-	=41	=41	=41	=41
!	!	!	!	!LO:TX:t=P:problem:kreska pseudotaktowa	!	!	!
(>4Gn\	-san-	2e\	-san-	1.g	-san-	1b	in
4F#X\)	.	.	.	.	.	.	.
(>4E\	-na	2e,<\	-na	.	.	.	.
4F#,<\)	.	.	.	.	.	.	.
*	*	*	*Xij	*	*	*	*
!	!	!	!	!	!	!LO:TX:t=P:problem:kreska pseudotaktowa	!
!	!	!LO:TX:t=P:problem:kreska pseudotaktowa	!	!	!	!	!
!	!	!	!	!	!	!LO:TX:t=P:problem:znak cc# na marginesie [custos]	!
!	!	!	!	!	!	!LO:SIC:v:t=custos cc#	!
4Gn\	in	2e\	in	.	.	2ee\	ex-
!LO:TX:t=P:problem:kreska pseudotaktowa	!	!	!	!	!	!	!
4E\	ex-	.	.	.	.	.	.
!	!	!	!	!	!	!LO:LB:g=original	!
=42	=42	=42	=42	=42	=42	=42	=42
2A\	-cel-	1.e	ex-	2a\	-na	4cc#X\	-cel-
.	.	.	.	.	.	4b\	.
2A,<\	-ſis	.	.	2a,<\	.	4a\	.
.	.	.	.	.	.	4b\	.
!	!	!	!	!LO:TX:t=P:problem:kreska pseudotaktowa	!	!	!
!	!	!	!	!	!	!LO:TX:t=P:problem:# above	!
4A\	O-	.	.	2a\	O-	4cc#Xi\	.
!LO:TX:t=P:problem:kreska pseudotaktowa	!	!	!	!	!	!LO:TX:t=P:problem:kreska pseudotaktowa	!
4G\	.	.	.	.	.	4a\	.
=43	=43	=43-	=43-	=43	=43	=43	=43
!	!	!	!	!LO:TX:t=P:problem:kreska pseudotaktowa	!	!	!
4F#X\	-san-	1.f#X	.	1.a	-san-	2dd\	-sis.
4E\	.	.	.	.	.	.	.
(>4D\	-na	.	.	.	.	2dd,<\	.
4E,<\)	.	.	.	.	.	.	.
!	!	!	!	!	!	!LO:TX:t=P:problem:kreska pseudotaktowa	!
4F#\	in	.	.	.	.	2dd\	O-
!LO:TX:t=P:problem:kreska pseudotaktowa	!	!	!	!	!	!	!
4D\	ex-	.	.	.	.	.	.
=44	=44	=44-	=44-	=44	=44	=44	=44
!	!	!	!	!LO:TX:t=P:problem:kreska pseudotaktowa	!	!	!
!	!	!	!	!LO:TX:a:t=P:w źródle możliwa ligatura:problem	!	!	!
2G\	-cel-	1.dn	-cel-	(<1.g	.	4b\	-san-
.	.	.	.	.	.	4a\	.
2G,<\	-ſis	.	.	.	.	4g\	-na
.	.	.	.	.	.	4a\	.
4G\	O-	.	.	.	.	4b\	in
!LO:TX:t=P:problem:kreska pseudotaktowa	!	!	!	!	!	!LO:TX:t=P:problem:kreska pseudotaktowa	!
4Fn\	.	.	.	.	.	4g\	.
=45	=45	=45-	=45-	=45	=45	=45	=45
!	!	!LO:TX:t=P:problem:kreska pseudotaktowa	!	!LO:TX:t=P:problem:kreska pseudotaktowa	!	!	!
(>4E\	-san-	1.e	.	1.g)	.	1.cc	ex-
4D\)	.	.	.	.	.	.	.
(>4C\	-na	.	.	.	.	.	.
4D,<\)	.	.	.	.	.	.	.
4E\	in	.	.	.	.	.	.
!LO:TX:t=P:problem:kreska pseudotaktowa	!	!	!	!	!	!	!
4C/	ex-	.	.	.	.	.	.
!LO:LB:g=original	!	!	!	!	!	!	!
=46	=46	=46	=46	=46	=46	=46-	=46-
!	!	!	!	!LO:TX:t=P:problem:kreska pseudotaktowa	!	!LO:TX:t=P:problem:kreska pseudotaktowa	!
!	!	!	!	!LO:TX:a:t=P:w źródle możliwa ligatura:problem	!	!	!
4F\	-cel-	1.cn	.	(<1.fn	-na	1.a	-cel-
4E\	.	.	.	.	.	.	.
4F\	.	.	.	.	.	.	.
4G\	.	.	.	.	.	.	.
4F\	.	.	.	.	.	.	.
!LO:TX:t=P:problem:kreska pseudotaktowa	!	!	!	!	!	!	!
4E\	.	.	.	.	.	.	.
=47	=47	=47-	=47-	=47	=47	=47	=47
!	!	!LO:TX:t=P:problem:kreska pseudotaktowa	!	!LO:TX:t=P:problem:kreska pseudotaktowa	!	!	!
4D/	.	1.d	-sis	1.f,<)	.	1.b	.
4C/	.	.	.	.	.	.	.
4D/	.	.	.	.	.	.	.
4E/	.	.	.	.	.	.	.
4F/	.	.	.	.	.	.	.
!LO:TX:t=P:problem:kreska pseudotaktowa	!	!	!	!	!	!	!
4D/	.	.	.	.	.	.	.
!	!	!LO:PB:g=original	!	!	!	!	!
=48	=48	=48	=48	=48	=48	=48-	=48-
!	!	!	!	!	!	!LO:TX:t=P:problem:kreska pseudotaktowa	!
4E\	.	1B	in	1e	in	1.g#X	.
4D\	.	.	.	.	.	.	.
4E\	.	.	.	.	.	.	.
4F\	.	.	.	.	.	.	.
!	!	!LO:TX:t=P:problem:kreska pseudotaktowa	!	!	!	!	!
4G#X\	.	2B\	ex-	2e\	ex-	.	.
!LO:TX:t=P:problem:kreska pseudotaktowa	!	!	!	!	!	!	!
4E\	.	.	.	.	.	.	.
=49	=49	=49	=49	=49-	=49-	=49	=49
1A	.	1c	-cel-	1e	-cel-	1a	.
!LO:TX:t=P:problem:kreska pseudotaktowa	!	!LO:TX:t=P:problem:kreska pseudotaktowa	!	!LO:TX:t=P:problem:kreska pseudotaktowa	!	!LO:TX:t=P:problem:kreska pseudotaktowa	!
2E,<\	-sis	2B,<\	-ſis	2e,<\	-sis	2g#X\	-sis
=50	=50	=50	=50	=50	=50	=50	=50
*	*	*	*	*	*ij	*	*
1AA	in	1c	in	1e	in	1a	in
!	!	!LO:TX:t=P:problem:kreska pseudotaktowa	!	!LO:TX:t=P:problem:kreska pseudotaktowa	!	!	!
2E\	ex-	2B\	ex-	2e\	ex-	2g#X\	ex-
=51-	=51-	=51	=51	=51	=51	=51-	=51-
1.AA	-cel-	1.c	-cel-	1.e	-cel-	1.a	-cel-
=52-	=52-	=52-	=52-	=52-	=52-	=52-	=52-
!LO:N:vis=0	!	!LO:N:vis=0	!	!LO:N:vis=0	!	!LO:N:vis=0	!
1.E;>	-sis.	1.B;>	-ſis.	1.e;>	-sis	1.g#X;>	-sis.
*	*	*	*	*	*Xij	*	*
=53||	=53||	=53||	=53||	=53||	=53||	=53||	=53||
*M2/1	*	*M2/1	*	*M2/1	*	*M2/1	*
!	!	!LO:TX:t=P:problem:kreska pseudotaktowa	!	!	!	!LO:TX:t=P:problem:kreska pseudotaktowa	!
2C/	Be-	1c	Be-	2r	.	1r	.
2C/	-ne-	.	.	1g	Be-	.	.
!LO:TX:t=P:problem:kreska pseudotaktowa	!	!LO:TX:t=P:problem:kreska pseudotaktowa	!	!	!	!	!
1F	-di-	1c	-ne-	.	.	2.a\	Be-
.	.	.	.	4fn\	-ne-	.	.
!	!	!	!	!LO:TX:t=P:problem:kreska pseudotaktowa	!	!LO:TX:t=P:problem:kreska pseudotaktowa	!
.	.	.	.	4e\	-di-	4a\	-ne-
=54	=54	=54	=54	=54	=54	=54	=54
2F,<\	-ctus	2B\	-di-	(>2d\	.	(>2b\	-di-
2E\	qui	4G,</	-ctus	2e\)	.	2cc\)	.
!	!	!LO:TX:t=P:problem:kreska pseudotaktowa	!	!	!	!	!
.	.	4G/	qui	.	.	.	.
2D/	Ve-	2d\	ve-	2fn,<\	-ctus	2b,<\	-ctus
!LO:TX:t=P:problem:kreska pseudotaktowa	!	!LO:TX:t=P:problem:kreska pseudotaktowa	!	!LO:TX:t=P:problem:kreska pseudotaktowa	!	!LO:TX:t=P:problem:kreska pseudotaktowa	!
2C/	.	2e\	.	2g\	qui	2cc\	qui
!	!	!	!	!	!	!LO:LB:g=original	!
=55	=55	=55	=55	=55	=55	=55	=55
!LO:TX:t=P:problem:kreska pseudotaktowa	!	!	!	!	!	!	!
1G	.	1.d,<	-nit	1g	Ve-	2cc\	Ve-
.	.	.	.	.	.	1b	-nit
!	!	!	!	!LO:LB:g=original	!	!	!
2G,<\	-nit	.	.	2g,<\	-nit	.	.
!LO:TX:t=P:problem:kreska pseudotaktowa	!	!LO:TX:t=P:problem:kreska pseudotaktowa	!	!LO:TX:t=P:problem:kreska pseudotaktowa	!	!LO:TX:t=P:problem:kreska pseudotaktowa	!
2E\	in	2e\	in	2g#X\	in	2b\	in
=56	=56	=56	=56	=56	=56	=56	=56
!LO:TX:t=P:problem:kreska pseudotaktowa	!	!	!	!	!	!	!
1A	No-	1e	No-	1a	No-	1cc	No-
!LO:LB:g=original	!	!	!	!	!	!	!
(<4AA/	-mi-	2e\	-mi-	2a\	-mi-	2cc\	-mi-
4BB/)	.	.	.	.	.	.	.
!	!	!LO:TX:t=P:problem:kreska pseudotaktowa	!	!LO:TX:t=P:problem:kreska pseudotaktowa	!	!LO:TX:t=P:problem:kreska pseudotaktowa	!
(<4C/	-ne	2e\	-ne	2a\	-ne	2cc\	-ne
!LO:TX:t=P:problem:kreska pseudotaktowa	!	!	!	!	!	!	!
4D/)	.	.	.	.	.	.	.
=57	=57	=57	=57	=57	=57	=57	=57
2.E\	Do-	2.e\	Do-	2.g#X\	Do-	2.b\	Do-
!LO:TX:t=P:problem:kreska pseudotaktowa	!	!	!	!	!	!LO:TX:t=P:problem:kreska pseudotaktowa	!
4E\	-mi-	4e\	-mi-	4g#\	-mi-	4b\	-mi-
!	!	!LO:TX:t=P:problem:kreska pseudotaktowa	!	!LO:TX:t=P:problem:kreska pseudotaktowa	!	!	!
2E,<\	-ni	1e,<	-ni	1g#,<	-ni	2b,<\	-ni
!LO:TX:t=P:problem:kreska pseudotaktowa	!	!	!	!	!	!LO:TX:t=P:problem:kreska pseudotaktowa	!
2E\	in	.	.	.	.	2e/	in
!	!	!LO:LB:g=original	!	!	!	!	!
=58	=58	=58	=58	=58	=58	=58	=58
1.E	No-	2r	.	2r	.	2a|>\	No-
!	!	!	!	!	!	!LO:TX:t=P:problem:kreska pseudotaktowa	!
!	!	!	!	!LO:TX:t=P:problem:kreska pseudotaktowa	!	!	!
.	.	2E/	in	2gn\	in	2b|>\	-mi-
.	.	2A\	No-	2a\	No-	(>2cc\	-ne
!LO:TX:t=P:problem:kreska pseudotaktowa	!	!LO:TX:t=P:problem:kreska pseudotaktowa	!	!LO:TX:t=P:problem:kreska pseudotaktowa	!	!LO:TX:t=P:problem:kreska pseudotaktowa	!
2E\	-mi-	2B\	-mi-	2g#X\	-mi-	2b\)	.
=59	=59	=59	=59	=59	=59	=59	=59
!LO:TX:t=P:problem:kreska pseudotaktowa	!	!	!	!	!	!	!
0E	-ne	(>2c\	-ne	(>2a\	-ne	2a\	Do-
!	!	!	!	!LO:TX:t=P:problem:kreska pseudotaktowa	!	!	!
.	.	2B\)	.	2g#X\)	.	2b\	.
.	.	2A/	Do-	4a\	Do-	2cc\	.
.	.	.	.	4A/	.	.	.
!	!	!LO:TX:t=P:problem:kreska pseudotaktowa	!	!	!	!LO:TX:t=P:problem:kreska pseudotaktowa	!
.	.	2G#X/	.	1e\	.	2b\	.
=60	=60	=60	=60	=60-	=60-	=60	=60
1.F	Do-	1.A	.	.	.	1.a	.
.	.	.	.	4d\	.	.	.
!	!	!	!	!LO:TX:t=P:problem:kreska pseudotaktowa	!	!	!
.	.	.	.	4c\	.	.	.
.	.	.	.	2.d\	-mi-	.	.
2F\	-mi-	2A\	-mi-	.	.	2a\	-mi-
.	.	.	.	4d\	-ni.	.	.
=61-	=61-	=61-	=61-	=61-	=61-	=61-	=61-
!LO:TX:a:Bi:t= [M3/2] Osanna da Capo	!	!LO:TX:a:Bi:t= [M3/2] Osanna da Capo	!	!	!	!	!
!	!	!	!	!LO:TX:a:Bi:t= [M3/2] Osanna da Capo	!	!LO:TX:a:Bi:t= [M3/2] Osanna da Capo	!
0E;>	-ni.	0B;>	-ni.	0e;>	.	0g#X;>	-ni.
==	==	==	==	==	==	==	==
*-	*-	*-	*-	*-	*-	*-	*-
!!title: @{OTL};
!!!RDF**kern: > = above
!!!RDF**kern: < = below
!!!RDF**kern: | = vertical stroke
!!!RDF**kern: N = linked
!!!RDF**kern: i = editorial accidental
!!!RDF**kern: l = terminal long
!!!EED: Wojciech Jakubiak-Danek
!!!EST: 2021-07-25
!!!URL-scan: http://repozytorium.nifc.pl/skany/pl-kk-nut--i-27
!!!ONB-nifc: UWAGA: części Mszy: 1. Kyrie, 2. Et in terra, 3. Sanctus, 4. Agnus Dei.
!!!ENC: Katarzyna Serwa
!!!END: 2021-07-02
